symbols/web/mark_chat_unread/materialsymbolsrounded/mark_chat_unread_wght100grad200_40px.svg

<svg xmlns="http://www.w3.org/2000/svg" height="40" width="40"><path d="m10 28.292-2.792 2.791q-.75.75-1.666.355-.917-.396-.917-1.396V7.333q0-1.291.875-2.166t2.167-.875h17.208q-.333.375-.542.791Q24.125 5.5 24 6H7.667q-.584 0-.959.375t-.375.958v22.209l3-3h23q.584 0 .959-.375t.375-.959V14.75q.5-.125.937-.396.438-.271.771-.604v11.458q0 1.292-.875 2.188-.875.896-2.167.896ZM6.333 7.333v22.209V6v1.333Zm25.334 4.375q-1.75 0-2.959-1.229Q27.5 9.25 27.5 7.5q0-1.708 1.208-2.937 1.209-1.23 2.959-1.23t2.979 1.23q1.229 1.229 1.229 2.937 0 1.75-1.229 2.979t-2.979 1.229Z"/></svg>

<svg xmlns="http://www.w3.org/2000/svg" height="40" width="40"><path d="M10 28.292 7.208 31.083Q6.458 31.833 5.542 31.438Q4.625 31.042 4.625 30.042V7.333Q4.625 6.042 5.5 5.167Q6.375 4.292 7.667 4.292H24.875Q24.542 4.667 24.333 5.083Q24.125 5.5 24 6H7.667Q7.083 6 6.708 6.375Q6.333 6.75 6.333 7.333V29.542L9.333 26.542H32.333Q32.917 26.542 33.292 26.167Q33.667 25.792 33.667 25.208V14.75Q34.167 14.625 34.604 14.354Q35.042 14.083 35.375 13.75V25.208Q35.375 26.5 34.5 27.396Q33.625 28.292 32.333 28.292ZM6.333 7.333Q6.333 7.333 6.333 7.333Q6.333 7.333 6.333 7.333V25.208Q6.333 25.792 6.333 26.167Q6.333 26.542 6.333 26.542V29.542V7.333Q6.333 6.75 6.333 6.375Q6.333 6 6.333 6Q6.333 7 6.333 7.167Q6.333 7.333 6.333 7.333ZM31.667 11.708Q29.917 11.708 28.708 10.479Q27.5 9.25 27.5 7.5Q27.5 5.792 28.708 4.563Q29.917 3.333 31.667 3.333Q33.417 3.333 34.646 4.563Q35.875 5.792 35.875 7.5Q35.875 9.25 34.646 10.479Q33.417 11.708 31.667 11.708Z"/></svg>
